assets/images/page/contact/icons/location.svg

<svg width="16" height="22" viewBox="0 0 16 22" fill="none" xmlns="http://www.w3.org/2000/svg">
<path d="M8.0469 11.6657C7.0145 11.6657 5.97824 11.2791 5.18808 10.5066C5.06944 10.3907 5.06944 10.2031 5.18808 10.0872C5.30671 9.97133 5.49874 9.97133 5.61737 10.0872C6.94939 11.3886 9.10302 11.4026 10.4174 10.1185C11.7317 8.8344 11.7174 6.7309 10.3854 5.42901C9.05336 4.12766 6.89973 4.11311 5.58537 5.39774C4.75658 6.20853 4.42275 7.41068 4.71409 8.53683C4.75492 8.69586 4.65671 8.85704 4.49448 8.89694C4.3317 8.93683 4.16672 8.84087 4.12588 8.68238C3.78212 7.35516 4.1772 5.93575 5.15663 4.97888C5.90761 4.24518 6.90966 3.84464 7.98124 3.85165C9.0506 3.85812 10.0571 4.26944 10.8152 5.01068C11.5734 5.75192 11.995 6.73467 12.0016 7.77942C12.0082 8.82524 11.5982 9.80529 10.8478 10.5384C10.0769 11.2905 9.06385 11.6657 8.0469 11.6657Z" fill="#00003F" stroke="#00003F" stroke-width="0.3"/>
<path d="M8 21C7.89295 21 7.79418 20.945 7.739 20.855L1.96784 11.3854C1.33438 10.3472 1 9.16173 1 7.95741V7.75849C1 4.03181 4.14023 1 8 1C11.8598 1 15 4.03181 15 7.75903V7.95795C15 9.1628 14.6656 10.3482 14.0322 11.386L8.26044 20.855C8.20582 20.945 8.10705 21 8 21ZM8 1.59299C4.47462 1.59299 1.60697 4.35903 1.60697 7.75903V7.95795C1.60697 9.05553 1.91211 10.1358 2.48928 11.0825L8 20.124L13.5107 11.0825C14.0879 10.1364 14.393 9.05607 14.393 7.95795V7.75903C14.3925 4.35903 11.5248 1.59299 8 1.59299Z" fill="#00003F" stroke="#00003F" stroke-width="0.3"/>
</svg>

<svg width="16" height="22" fill="none" xmlns="http://www.w3.org/2000/svg"><path d="M8.047 11.666a4.082 4.082 0 0 1-2.859-1.16.292.292 0 0 1 0-.419.309.309 0 0 1 .43 0c1.331 1.302 3.485 1.316 4.8.031 1.314-1.284 1.3-3.387-.033-4.689-1.332-1.301-3.485-1.316-4.8-.031a3.258 3.258 0 0 0-.87 3.139.296.296 0 0 1-.22.36.304.304 0 0 1-.37-.215A3.843 3.843 0 0 1 5.158 4.98 3.973 3.973 0 0 1 7.98 3.852a4.066 4.066 0 0 1 2.834 1.159 3.884 3.884 0 0 1 1.187 2.768 3.793 3.793 0 0 1-1.154 2.76 3.996 3.996 0 0 1-2.801 1.127Z" fill="#00003F" stroke="#00003F" stroke-width=".3"/><path d="M8 21a.306.306 0 0 1-.261-.145l-5.771-9.47A6.582 6.582 0 0 1 1 7.957v-.199C1 4.032 4.14 1 8 1s7 3.032 7 6.759v.199a6.58 6.58 0 0 1-.968 3.428L8.26 20.855A.304.304 0 0 1 8 21ZM8 1.593c-3.525 0-6.393 2.766-6.393 6.166v.199a6 6 0 0 0 .882 3.124L8 20.124l5.51-9.041a6 6 0 0 0 .883-3.125v-.199c0-3.4-2.868-6.166-6.393-6.166Z" fill="#00003F" stroke="#00003F" stroke-width=".3"/></svg>
